contributed-vectors/lynx_launcher.svg

<?xml version="1.0" encoding="UTF-8" standalone="no"?>
<svg
   xmlns:dc="http://purl.org/dc/elements/1.1/"
   xmlns:cc="http://creativecommons.org/ns#"
   xmlns:rdf="http://www.w3.org/1999/02/22-rdf-syntax-ns#"
   xmlns:svg="http://www.w3.org/2000/svg"
   xmlns="http://www.w3.org/2000/svg"
   xmlns:sodipodi="http://sodipodi.sourceforge.net/DTD/sodipodi-0.dtd"
   xmlns:inkscape="http://www.inkscape.org/namespaces/inkscape"
   viewBox="0 0 192 192"
   version="1.1"
   id="svg16"
   sodipodi:docname="lynx_launcher.svg"
   inkscape:version="0.92.4 (5da689c313, 2019-01-14)">
  <metadata
     id="metadata20">
    <rdf:RDF>
      <cc:Work
         rdf:about="">
        <dc:format>image/svg+xml</dc:format>
        <dc:type
           rdf:resource="http://purl.org/dc/dcmitype/StillImage" />
        <dc:title />
      </cc:Work>
    </rdf:RDF>
  </metadata>
  <sodipodi:namedview
     pagecolor="#ffffff"
     bordercolor="#666666"
     borderopacity="1"
     objecttolerance="10"
     gridtolerance="10"
     guidetolerance="10"
     inkscape:pageopacity="0"
     inkscape:pageshadow="2"
     inkscape:window-width="1920"
     inkscape:window-height="1017"
     id="namedview18"
     showgrid="true"
     inkscape:zoom="3.4766083"
     inkscape:cx="8.7404288"
     inkscape:cy="60.290641"
     inkscape:window-x="-8"
     inkscape:window-y="-8"
     inkscape:window-maximized="1"
     inkscape:current-layer="svg16"
     inkscape:snap-global="true">
    <inkscape:grid
       type="xygrid"
       id="grid827"
       spacingx="4"
       spacingy="4" />
  </sodipodi:namedview>
  <defs
     id="defs4">
    <style
       id="style2">.a{fill:none;stroke:#b1b5bd;stroke-linecap:round;stroke-linejoin:round;isolation:isolate;opacity:0.63;}</style>
  </defs>
  <path
     style="fill:#728dbe;opacity:1;stroke:none"
     d="M 96 8 A 88 88 0 0 0 8 96 A 88 88 0 0 0 96 184 A 88 88 0 0 0 109.1582 182.9375 L 181.44141 116.63086 A 88 88 0 0 0 184 96 A 88 88 0 0 0 96 8 z "
     id="circle8" />
  <path
     style="fill:#56595b"
     d="M 101.0332 38.330078 C 101.0332 38.330078 94.812906 38.625242 91.972656 49.404297 C 83.717892 57.420491 84.564453 75.867188 84.564453 75.867188 C 84.564453 75.867188 75.611919 83.739764 69.033203 87.373047 C 66.79791 88.607552 64.711249 88.732828 61.769531 92.765625 C 59.569615 95.781487 57.095442 102.99007 55.441406 107.72266 C 53.659847 110.22612 45.463579 115.22135 45.230469 119.01172 C 44.593042 129.3763 56.521484 132.89062 56.521484 132.89062 C 56.521484 132.89062 57.778902 138.01493 66.515625 141.16016 C 67.745946 139.74831 69.505192 140.04834 70.615234 140.58398 C 72.395773 141.44316 76.609907 147.88209 82.121094 153.74414 C 87.02018 149.36964 93.306976 148.61109 95.710938 148.92578 C 105.37958 150.19143 107.86771 174.40988 108.45703 183.02148 A 88 88 0 0 0 181.44141 116.63086 C 175.65681 116.08406 163.9568 114.68411 156.47461 111.75 C 150.05262 109.23164 137.61305 102.97176 134.90234 99.380859 C 129.38045 90.089806 120.66406 79.390625 120.66406 79.390625 C 120.66406 79.390625 124.2167 68.614964 122.46094 53.791016 C 123.00516 51.53614 124.60297 49.633853 125.19336 47.390625 C 126.62157 41.964087 130.29883 38.402344 130.29883 38.402344 C 130.29883 38.402344 122.28111 38.571324 115.99023 50.410156 C 114.15326 51.264312 111.89481 52.929446 108.95898 56.337891 C 106.55966 59.123472 102.4707 65.367188 102.4707 65.367188 C 102.4707 65.367188 101.88465 62.694201 100.45703 59.759766 C 99.088103 56.945966 97.223885 53.252901 96.933594 51.058594 C 96.932094 49.327124 98.047929 50.370814 98.875 46.240234 C 99.177107 44.731446 98.797479 43.11408 99.234375 41.638672 C 99.590691 40.435395 101.0332 38.330078 101.0332 38.330078 z "
     id="path829" />
</svg>

<svg xmlns="http://www.w3.org/2000/svg" id="svg16" version="1.1" viewBox="0 0 192 192"><defs id="defs4"><style id="style2">.a{fill:none;stroke:#b1b5bd;stroke-linecap:round;stroke-linejoin:round;isolation:isolate;opacity:.63}</style></defs><path id="circle8" d="M96 8A88 88 0 0 0 8 96a88 88 0 0 0 88 88 88 88 0 0 0 13.158-1.063l72.283-66.306A88 88 0 0 0 184 96 88 88 0 0 0 96 8z" style="fill:#728dbe;opacity:1;stroke:none"/><path id="path829" d="M101.033 38.33s-6.22.295-9.06 11.074c-8.255 8.016-7.409 26.463-7.409 26.463s-8.952 7.873-15.53 11.506c-2.236 1.235-4.323 1.36-7.264 5.393-2.2 3.015-4.675 10.224-6.329 14.957-1.781 2.503-9.977 7.498-10.21 11.289-.638 10.364 11.29 13.879 11.29 13.879s1.258 5.124 9.995 8.27c1.23-1.413 2.99-1.113 4.1-.577 1.78.86 5.994 7.298 11.505 13.16 4.9-4.374 11.186-5.133 13.59-4.818 9.669 1.265 12.157 25.484 12.746 34.095a88 88 0 0 0 72.984-66.39c-5.784-.547-17.484-1.947-24.966-4.881-6.422-2.518-18.862-8.778-21.573-12.37-5.522-9.29-14.238-19.99-14.238-19.99s3.553-10.775 1.797-25.599c.544-2.255 2.142-4.157 2.732-6.4 1.429-5.427 5.106-8.989 5.106-8.989s-8.018.17-14.309 12.008c-1.837.854-4.095 2.52-7.031 5.928-2.4 2.785-6.488 9.03-6.488 9.03s-.586-2.674-2.014-5.608c-1.369-2.814-3.233-6.507-3.523-8.701-.002-1.732 1.114-.688 1.941-4.819.302-1.509-.078-3.126.36-4.601.356-1.204 1.798-3.309 1.798-3.309z" style="fill:#56595b"/></svg>
